X:1
T:Title
%%score { ( 1 3 ) | ( 2 4 ) }
L:1/8
Q:1/4=110
M:4/4
K:Db
V:1 treble nm="Grand Piano"
V:3 treble 
V:2 bass 
V:4 bass 
V:1
 F4 _F2 =F2 | G4 F4 | [A,A]2- [A,DA]2 [A,EA]2 [A,CG]2 | [DF]8[K:bass] | B4 G2 B2 | d4 A4 | %6
w: J.~Lincoln~Hall * *||||||
 F4 E2 B2 | A2- [GA-]2 [FA-]2 [EA]2 | [A,DF]4 [=G,=DE]2 [A,DF]2 | [B,DG]4 [A,DF]4 | %10
w: ||||
 [Fd]4 [Ed]2 [Ec]2 | [B,DB]8 | B4 c2 d2 | d2 A2 [A,DF]2 [B,DB]2 | [A,DF]4 [A,CF]2[K:bass] [G,CE]2 | %15
w: |||||
 [F,A,D]6 z2 | A4 =G2 A2 | B4 A4 | F4 E2 F2 | G4 F4 | B4 c2 d2 | d2 A2 [A,DF]2 [B,DB]2 | %22
w: |||||||
 [A,DF]4 [A,CF]2[K:bass] [G,CE]2[Q:1/4=108][Q:1/4=107][Q:1/4=105][Q:1/4=104][Q:1/4=102][Q:1/4=100][Q:1/4=99][Q:1/4=97][Q:1/4=95][Q:1/4=94][Q:1/4=92][Q:1/4=91][Q:1/4=89][Q:1/4=87][Q:1/4=86][Q:1/4=84] | %23
w: |
 [F,A,D]6 z2 |] %24
w: |
V:2
 [D,A,D]4 [D,=G,D]2 [D,A,D]2 | [D,B,D]4 [D,A,D]4 | A,,2 B,,2 C,2 A,,2 | z2 B,2 z4 | %4
 [G,B,D]4 [G,B,D]2 [G,B,D]2 | [F,A,D]4 [F,D]4 | [=G,B,D]4 [G,B,D]2 [E,G,D]2 | z2 B,2 A,2 G,2 | %8
 D,4 D,2 D,2 | D,4 D,4 | [B,,B,]4 [F,=A,]2 [F,A,]2 | G,2 G,,2 B,,2 D,2 | %12
 [G,B,D]4 [G,B,D]2 [G,B,D]2 | [F,A,D]4 D,2 G,,2 | A,,4 A,,2 A,,2 | D,6 z2 | F4 _F2 =F2 | _F4 =F4 | %18
 [A,D]4 [=G,=D]2 [A,D]2 | [B,D]4 [A,D]4 | [G,B,D]4 [G,=A,D]2 [G,A,D]2 | [F,A,D]4 D,2 G,,2 | %22
 A,,4 A,,2 A,,2 | D,6 z2 |] %24
V:3
 x8 | x8 | C2 z2 z4 | A,2 z2[K:bass] A,2 F,2 | x8 | x8 | x8 | [A,C]2 z2 z4 | x8 | x8 | x8 | x8 | %12
 x8 | x8 | x6[K:bass] x2 | x8 | x8 | x8 | x8 | x8 | x8 | x8 | x6[K:bass] x2 | x8 |] %24
V:4
 x8 | x8 | x8 | D,8 | x8 | x8 | x8 | A,,8 | x8 | x8 | x8 | x8 | x8 | x8 | x8 | x8 | x8 | x8 | x8 | %19
 x8 | x8 | x8 | x8 | x8 |] %24

